X:397
T: Le dsappointement (121), S. 279f
N: T0286
O: Luxemburg
S: Singendes Volk, Esch-Alzette 1937 posth.]
N: Fischbach bei Mersch, hhh Leo Godefroid-Haag,
N: mitgeteilt: hhh Heinrich Godefroid (Lehrer)
R: Liebeslieder]
M: 2/4
L: 1/8
K: D
D | DEFG | AA
d2 | BcdB | A2z
A | BABc | dAA
A | BABc | dAA
d | ABAG | F2
BB | AGFE | D2z

